src/standard/elevator.svg

<svg xmlns="http://www.w3.org/2000/svg" viewBox="0 0 36 36">
  <path d="M27 6.38H9a.62.62 0 0 0-.62.62v24a.62.62 0 0 0 .62.62h18a.62.62 0 0 0 .62-.62V7a.62.62 0 0 0-.62-.62ZM9.62 7.62h7.76v22.76H9.62Zm16.76 22.76h-7.76V7.62h7.76ZM19.56 5.44c.68.64 1.31-.53 1.88-1s-.32-1.46-.88-.88l-.56.56-.56-.56c-.56-.58-1.46.32-.88.88Zm-4.12 0 .56-.56.56.56a.62.62 0 0 0 .88-.88c-.56-.46-1.2-1.64-1.88-1l-1 1c-.56.56.32 1.44.88.88Z"/>
</svg>

<svg id="bd1aef6b-e5a1-4adc-9657-9cddc32a9200" data-name="Icon" xmlns="http://www.w3.org/2000/svg" viewBox="0 0 36 36">
  <title>Elevator icon - Black</title>
<desc>up, down, transport, movement, direction, building, travel, shapes and signage</desc>
<metadata><?xpacket begin="﻿" id="W5M0MpCehiHzreSzNTczkc9d"?>
<x:xmpmeta xmlns:x="adobe:ns:meta/" x:xmptk="Adobe XMP Core 8.0-c001 1.000000, 0000/00/00-00:00:00        ">
   <rdf:RDF xmlns:rdf="http://www.w3.org/1999/02/22-rdf-syntax-ns#">
      <rdf:Description rdf:about=""
            xmlns:xmp="http://ns.adobe.com/xap/1.0/"
            xmlns:dc="http://purl.org/dc/elements/1.1/"
            xmlns:cq="http://www.day.com/jcr/cq/1.0"
            xmlns:tiff="http://ns.adobe.com/tiff/1.0/">
         <xmp:rhcc-effective-on>2023-12-08T17:37:56.666Z</xmp:rhcc-effective-on>
         <xmp:rhcc-metadata-complete-moderator>pending</xmp:rhcc-metadata-complete-moderator>
         <xmp:rhcc-translation-id>TRA4f349e77-0abb-4b7a-b627-273adce8148f</xmp:rhcc-translation-id>
         <xmp:brand-content-type>Icon</xmp:brand-content-type>
         <xmp:CreateDate>2023-12-08T17:37:56.666Z</xmp:CreateDate>
         <xmp:rhcc-effective-on-set-on-upload>true</xmp:rhcc-effective-on-set-on-upload>
         <xmp:rhcc-metadata-complete-uploader>pending</xmp:rhcc-metadata-complete-uploader>
         <xmp:rhcc-file-last-modified>2023-12-08T17:40:49.498Z</xmp:rhcc-file-last-modified>
         <xmp:rhcc-audience>rhcc-audience:internal</xmp:rhcc-audience>
         <xmp:rhcc-rights-restricted>no</xmp:rhcc-rights-restricted>
         <xmp:brand-content-subtype>Icon</xmp:brand-content-subtype>
         <xmp:rhcc-derivative-id>DER4f349e77-0abb-4b7a-b627-273adce8148f</xmp:rhcc-derivative-id>
         <xmp:brand-logo-color>Black</xmp:brand-logo-color>
         <xmp:rhcc-notify-portal-subscribers-on-change>yes</xmp:rhcc-notify-portal-subscribers-on-change>
         <dc:format>image/svg+xml</dc:format>
         <dc:modified>2024-02-09T20:28:09.749Z</dc:modified>
         <dc:title>
            <rdf:Alt>
               <rdf:li xml:lang="x-default">Elevator icon - Black</rdf:li>
            </rdf:Alt>
         </dc:title>
         <dc:description>
            <rdf:Alt>
               <rdf:li xml:lang="x-default">up, down, transport, movement, direction, building, travel, shapes and signage</rdf:li>
            </rdf:Alt>
         </dc:description>
         <cq:lastReplicationAction_scene7>Activate</cq:lastReplicationAction_scene7>
         <cq:lastReplicationAction_publish>Activate</cq:lastReplicationAction_publish>
         <cq:lastReplicated_publish>2024-02-09T22:15:03.073Z</cq:lastReplicated_publish>
         <cq:lastReplicatedBy>workflow-process-service</cq:lastReplicatedBy>
         <cq:lastReplicationAction>Activate</cq:lastReplicationAction>
         <cq:lastReplicatedBy_publish>workflow-process-service</cq:lastReplicatedBy_publish>
         <cq:isDelivered>true</cq:isDelivered>
         <cq:lastReplicated>2024-02-09T22:15:03.073Z</cq:lastReplicated>
         <cq:lastReplicatedBy_scene7>workflow-process-service</cq:lastReplicatedBy_scene7>
         <cq:lastReplicated_scene7>2024-02-09T22:15:03.073Z</cq:lastReplicated_scene7>
         <tiff:ImageLength>36</tiff:ImageLength>
         <tiff:ImageWidth>36</tiff:ImageWidth>
      </rdf:Description>
   </rdf:RDF>
</x:xmpmeta>
                                                                                                    
                                                                                                    
                                                                                                    
                                                                                                    
                                                                                                    
                                                                                                    
                                                                                                    
                                                                                                    
                                                                                                    
                                                                                                    
                                 
<?xpacket end="w"?></metadata>
<g>
    <path d="M27,6.38H9A.62.62,0,0,0,8.38,7V31a.62.62,0,0,0,.62.62H27a.62.62,0,0,0,.62-.62V7A.62.62,0,0,0,27,6.38ZM9.62,7.62h7.76V30.38H9.62ZM26.38,30.38H18.62V7.62h7.76Z"/>
    <path d="M19.56,5.44c.68.64,1.31-.53,1.88-1s-.32-1.46-.88-.88L20,4.12l-.56-.56c-.56-.58-1.46.32-.88.88Z"/>
    <path d="M15.44,5.44,16,4.88l.56.56a.62.62,0,0,0,.88-.88c-.56-.46-1.2-1.64-1.88-1l-1,1C14,5.12,14.88,6,15.44,5.44Z"/>
  </g>
</svg>
